assets/images/rosters-arrow-1.svg

<svg width="64" height="69" viewBox="0 0 64 69" fill="none" xmlns="http://www.w3.org/2000/svg">
<path d="M61.4338 2.88025C45.7216 0.15892 28.1676 3.86416 20.9338 12.3793C10.6029 24.5402 17.917 47.0785 23.2568 62.2591C23.4296 62.7504 24.6751 64.8999 23.5231 64.0812C21.2794 62.4865 24.659 67.9867 22.6575 66.0689M22.6575 66.0689C21.5269 64.9856 3.16656 49.014 2.14839 51.2935C0.0854551 55.9121 20.1718 64.7988 22.6575 66.0689ZM22.6575 66.0689C24.7863 67.1566 20.67 64.8603 22.6575 66.0689ZM22.6575 66.0689C24.7963 67.3694 22.8512 61.9526 23.5231 60.3804C28.045 49.8008 26.4338 40.8804 37.9338 45.8793" stroke="#D9315A" stroke-width="4" stroke-linecap="round"/>
</svg>

<svg width="64" height="69" viewBox="0 0 64 69" fill="none" xmlns="http://www.w3.org/2000/svg"><path d="M61.434 2.88c-15.712-2.721-33.266.984-40.5 9.5-10.331 12.16-3.017 34.698 2.323 49.88.173.49 1.418 2.64.266 1.821-2.244-1.595 1.136 3.906-.866 1.988m0 0c-1.13-1.083-19.49-17.055-20.509-14.776C.085 55.913 20.172 64.8 22.658 66.07Zm0 0c2.13 1.088-1.987-1.209 0 0Zm0 0c2.14 1.3.194-4.116.866-5.689 4.522-10.58 2.91-19.5 14.41-14.5" stroke="#D9315A" stroke-width="4" stroke-linecap="round"/></svg>
